Flat-Remix-Dark/apps/scalable/kteatime.svg

<svg xmlns="http://www.w3.org/2000/svg" xmlns:xlink="http://www.w3.org/1999/xlink" width="384pt" height="384pt" version="1.1" viewBox="0 0 384 384">
 <defs>
  <filter id="alpha" width="100%" height="100%" x="0%" y="0%" filterUnits="objectBoundingBox">
   <feColorMatrix in="SourceGraphic" type="matrix" values="0 0 0 0 1 0 0 0 0 1 0 0 0 0 1 0 0 0 1 0"/>
  </filter>
  <mask id="mask0">
   <g filter="url(#alpha)">
    <rect width="384" height="384" x="0" y="0" style="fill:rgb(0%,0%,0%);fill-opacity:0.2"/>
   </g>
  </mask>
  <clipPath id="clip1">
   <rect width="384" height="384" x="0" y="0"/>
  </clipPath>
  <g id="surface5" clip-path="url(#clip1)">
   <path style="fill:rgb(0%,0%,0%)" d="M 72 96.007812 C 72 107.914062 75.28125 132.007812 75.28125 132.007812 L 49.195312 132.007812 C 35.234375 132.007812 24 143.238281 24 157.207031 L 24 263.402344 C 24 277.355469 35.234375 288 49.195312 288 L 102 288 C 113.816406 288 120 276 120 276 C 148.652344 299.992188 190.398438 300 221.386719 300 C 284.386719 300 359.996094 297.601562 359.996094 96.003906 Z M 63.515625 156.007812 L 76.101562 156.007812 C 81.042969 205.761719 92.070312 239.402344 106.664062 262.035156 C 104.566406 263.261719 102.21875 264.003906 99.703125 264.003906 L 63.515625 264.003906 C 54.921875 264.003906 48 255.976562 48 246.003906 L 48 174.003906 C 48 164.035156 54.921875 156.003906 63.515625 156.003906 Z M 63.515625 156.007812"/>
  </g>
  <mask id="mask1">
   <g filter="url(#alpha)">
    <rect width="384" height="384" x="0" y="0" style="fill:rgb(0%,0%,0%);fill-opacity:0.2"/>
   </g>
  </mask>
  <clipPath id="clip2">
   <rect width="384" height="384" x="0" y="0"/>
  </clipPath>
  <g id="surface8" clip-path="url(#clip2)">
   <path style="fill:rgb(100%,100%,100%)" d="M 72 90 C 72 91.679688 72.179688 93.949219 72.292969 96.011719 L 359.929688 96 C 359.945312 93.976562 360 92.0625 360 90 Z M 49.195312 126 C 35.234375 126 24 137.238281 24 151.207031 L 24 157.207031 C 24 143.238281 35.234375 132.011719 49.195312 132.011719 L 75.28125 132.011719 C 75.28125 132.011719 74.804688 127.980469 74.554688 126 Z M 48 240 L 48 246 C 48 255.972656 54.921875 264 63.515625 264 L 99.703125 264 C 102.21875 264 104.566406 263.253906 106.664062 262.03125 C 105.695312 260.53125 104.789062 258.851562 103.851562 257.25 C 102.527344 257.695312 101.15625 258 99.703125 258 L 63.515625 258 C 54.921875 258 48 249.972656 48 240 Z M 48 240"/>
  </g>
 </defs>
 <g>
  <use mask="url(#mask0)" xlink:href="#surface5"/>
  <path style="fill:rgb(74.117647%,64.313725%,38.039216%)" d="M 72 90.003906 C 72 101.910156 75.28125 126.003906 75.28125 126.003906 L 49.195312 126.003906 C 35.234375 126.003906 24 137.234375 24 151.203125 L 24 257.394531 C 24 271.351562 35.234375 281.996094 49.195312 281.996094 L 102 281.996094 C 113.816406 281.996094 120 269.996094 120 269.996094 C 148.652344 293.988281 190.398438 293.996094 221.386719 293.996094 C 284.386719 293.996094 359.996094 291.59375 359.996094 90 Z M 63.515625 150.003906 L 76.101562 150.003906 C 81.042969 199.757812 92.070312 233.394531 106.664062 256.03125 C 104.566406 257.253906 102.21875 258 99.703125 258 L 63.515625 258 C 54.921875 258 48 249.972656 48 240 L 48 168 C 48 158.027344 54.921875 150 63.515625 150 Z M 63.515625 150.003906"/>
  <use mask="url(#mask1)" xlink:href="#surface8"/>
  <path style="fill:rgb(35.686275%,42.745098%,25.098039%)" d="M 260.394531 126 C 260.394531 126 249.53125 136.539062 237.789062 140.785156 C 150.808594 172.246094 187.492188 233.554688 188.6875 233.757812 C 188.6875 233.757812 193.566406 225.261719 200.152344 220.417969 C 241.960938 189.683594 250.460938 154.304688 250.460938 154.304688 C 250.460938 154.304688 241.078125 196.875 203.882812 223.363281 C 195.667969 229.210938 190.105469 243.609375 187.75 258 C 187.75 258 193.574219 255.648438 196.078125 255.007812 C 197.054688 248.636719 199.09375 242.535156 202.546875 237.085938 C 254.53125 243.273438 271.558594 201.386719 273.78125 186.78125 C 279.035156 152.28125 260.390625 126 260.390625 126 Z M 260.394531 126"/>
 </g>
</svg>

<svg xmlns="http://www.w3.org/2000/svg" xmlns:xlink="http://www.w3.org/1999/xlink" width="384pt" height="384pt" version="1.1" viewBox="0 0 384 384">
 <defs>
  <filter id="alpha" width="100%" height="100%" x="0%" y="0%" filterUnits="objectBoundingBox">
   <feColorMatrix in="SourceGraphic" type="matrix" values="0 0 0 0 1 0 0 0 0 1 0 0 0 0 1 0 0 0 1 0"/>
  </filter>
  <mask id="mask0">
   <g filter="url(#alpha)">
    <rect style="fill:rgb(0%,0%,0%);fill-opacity:0.2" width="384" height="384" x="0" y="0"/>
   </g>
  </mask>
  <clipPath id="clip1">
   <rect width="384" height="384" x="0" y="0"/>
  </clipPath>
  <g id="surface5" clip-path="url(#clip1)">
   <path d="M 72 96.007812 C 72 107.914062 75.28125 132.007812 75.28125 132.007812 L 49.195312 132.007812 C 35.234375 132.007812 24 143.238281 24 157.207031 L 24 263.402344 C 24 277.355469 35.234375 288 49.195312 288 L 102 288 C 113.816406 288 120 276 120 276 C 148.652344 299.992188 190.398438 300 221.386719 300 C 284.386719 300 359.996094 297.601562 359.996094 96.003906 Z M 63.515625 156.007812 L 76.101562 156.007812 C 81.042969 205.761719 92.070312 239.402344 106.664062 262.035156 C 104.566406 263.261719 102.21875 264.003906 99.703125 264.003906 L 63.515625 264.003906 C 54.921875 264.003906 48 255.976562 48 246.003906 L 48 174.003906 C 48 164.035156 54.921875 156.003906 63.515625 156.003906 Z M 63.515625 156.007812" style="fill:rgb(0%,0%,0%)"/>
  </g>
  <mask id="mask1">
   <g filter="url(#alpha)">
    <rect style="fill:rgb(0%,0%,0%);fill-opacity:0.2" width="384" height="384" x="0" y="0"/>
   </g>
  </mask>
  <clipPath id="clip2">
   <rect width="384" height="384" x="0" y="0"/>
  </clipPath>
  <g id="surface8" clip-path="url(#clip2)">
   <path d="M 72 90 C 72 91.679688 72.179688 93.949219 72.292969 96.011719 L 359.929688 96 C 359.945312 93.976562 360 92.0625 360 90 Z M 49.195312 126 C 35.234375 126 24 137.238281 24 151.207031 L 24 157.207031 C 24 143.238281 35.234375 132.011719 49.195312 132.011719 L 75.28125 132.011719 C 75.28125 132.011719 74.804688 127.980469 74.554688 126 Z M 48 240 L 48 246 C 48 255.972656 54.921875 264 63.515625 264 L 99.703125 264 C 102.21875 264 104.566406 263.253906 106.664062 262.03125 C 105.695312 260.53125 104.789062 258.851562 103.851562 257.25 C 102.527344 257.695312 101.15625 258 99.703125 258 L 63.515625 258 C 54.921875 258 48 249.972656 48 240 Z M 48 240" style="fill:rgb(100%,100%,100%)"/>
  </g>
 </defs>
 <use width="100%" height="100%" x="0" y="0" mask="url(#mask0)" xlink:href="#surface5"/>
 <path style="fill:#ffffff;fill-opacity:0.99215686" d="m 72,90.003906 c 0,11.906254 3.28125,36.000004 3.28125,36.000004 H 49.195312 C 35.234375,126.00391 24,137.23437 24,151.20312 v 106.19141 c 0,13.95703 11.234375,24.60156 25.195312,24.60156 H 102 c 11.81641,0 18,-12 18,-12 28.65234,23.99219 70.39844,24 101.38672,24 63,0 138.60937,-2.40234 138.60937,-203.99609 z m -8.484375,60.000004 h 12.585937 c 4.941407,49.7539 15.96875,83.39062 30.562498,106.02734 C 104.56641,257.25391 102.21875,258 99.703125,258 h -36.1875 C 54.921875,258 48,249.97266 48,240 v -72 c 0,-9.97266 6.921875,-18 15.515625,-18 z m 0,0"/>
 <use width="100%" height="100%" x="0" y="0" mask="url(#mask1)" xlink:href="#surface8"/>
 <path d="m 260.39453,133.5 c 0,0 -10.86328,10.53906 -22.60547,14.78516 -86.98047,31.46092 -50.29687,92.76953 -49.10156,92.97265 0,0 4.87891,-8.49609 11.46484,-13.33985 41.8086,-30.73438 50.3086,-66.11328 50.3086,-66.11328 0,0 -9.38282,42.57031 -46.57813,69.05859 -8.21484,5.84766 -13.77734,20.2461 -16.13281,34.63673 0,0 5.82422,-2.35157 8.32812,-2.99219 0.97657,-6.37109 3.01563,-12.47265 6.46875,-17.92187 51.98438,6.1875 69.01172,-35.69923 71.23438,-50.3047 C 279.03516,159.78125 260.39062,133.5 260.39062,133.5 Z m 0,0" style="opacity:0.3"/>
 <path style="fill:#0ca15e" d="m 260.39453,126 c 0,0 -10.86328,10.53906 -22.60547,14.78516 -86.98047,31.46093 -50.29687,92.76953 -49.10156,92.97265 0,0 4.87891,-8.49609 11.46484,-13.33984 41.8086,-30.73438 50.3086,-66.11328 50.3086,-66.11328 0,0 -9.38282,42.57031 -46.57813,69.05859 -8.21484,5.84766 -13.77734,20.24609 -16.13281,34.63672 0,0 5.82422,-2.35156 8.32812,-2.99219 0.97657,-6.37109 3.01563,-12.47265 6.46875,-17.92187 51.98438,6.1875 69.01172,-35.69922 71.23438,-50.30469 C 279.03516,152.28125 260.39062,126 260.39062,126 Z m 0,0"/>
</svg>
